X: 113
T: No_40_Song_of_Rejoicing.krn
%%abc-version 2.0
%%abcx-abcm2ps-target-version 5.9.1 (29 Sep 2008)
%%abc-creator hum2abc beta
%%abcx-conversion-date 2020/08/10 18:54:57
%%gracespace 0 6 6
%%humdrum-veritas 2471466989
%%humdrum-veritas-data 1554822987
%%linebreak <none>
%%barnumbers 0
L: 1/4
M: 2/4
%%staves {1 2}
V: 1 clef=bass
V: 2 clef=bass
K: A
[V:1] [K:clef=bass][M:2/4]EE ||  
[V:2] [K:clef=bass][M:2/4]G,,/G,,/ G,,/G,,/ ||  
[V:1] [M:3/4]E2C/C/ ||  
[V:2] [M:3/4]G,,/G,,/ G,,/G,,/ G,,/G,,/ ||  
[V:1] [M:2/4]E/>E/!fermata!C | 
[V:2] [M:2/4]z2 | 
[V:1] A,F, | 
[V:2] z2 | 
[V:1] A,2 | 
[V:2] z2 | 
[V:1] A,2- | 
[V:2] z2 | 
[V:1] A,2 | 
[V:2] z2 | 
[V:1] A,E ||  
[V:2] z2 ||  
[V:1] [M:3/4]E2C/C/ ||  
[V:2] [M:3/4]z3 ||  
[V:1] [M:2/4]E/E/!fermata!C | 
[V:2] [M:2/4]z2 | 
[V:1] A,F, | 
[V:2] z2 | 
[V:1] A,2 ||  
[V:2] z2 ||  
[V:1] [M:3/4]A,3 ||  
[V:2] [M:3/4]z3 ||  
[V:1] [M:2/4]CC | 
[V:2] [M:2/4]z2 | 
[V:1] C3/B,/ | 
[V:2] z2 | 
[V:1] A,C/C/ | 
[V:2] z2 | 
[V:1] A,2 | 
[V:2] z2 | 
[V:1] F,E, | 
[V:2] z2 | 
[V:1] E,C, | 
[V:2] z2 | 
[V:1] E,2 | 
[V:2] z2 | 
[V:1] E,2- | 
[V:2] z2 | 
[V:1] E,2 | 
[V:2] z2 | 
[V:1] A,A, ||  
[V:2] z2 ||  
[V:1] [M:3/4]A,2F,/F,/ | 
[V:2] [M:3/4]z3 | 
[V:1] A,/>A,/F,2 ||  
[V:2] z3 ||  
[V:1] [M:2/4]E,C, | 
[V:2] [M:2/4]z2 | 
[V:1] C,B,, | 
[V:2] z2 | 
[V:1] A,,2 |]  
[V:2] z2 |]  


